**kern
*staff1
!!pagebreak:original
*I"P1
=1-
*clefG2
*k[f#]
*M2/4
8G/L
8B/
8d/
8g/J
=2
8b\L
8g\
8dd\
8b\J
=3
4gg\
4gg\
=4
2dd\
=5
8cc\L
8ee\
8a\
8cc\J
=6
8b\L
8dd\
8g\
8b\J
=7
8a/L
8cc/
8e/
8a/J
=8
gQ/
4f#/
=
*-
